web/themes/custom/surf_main/images/icons/ui-icon-twitter.svg

<svg fill="none" height="28" viewBox="0 0 28 28" width="28" xmlns="http://www.w3.org/2000/svg"><path d="m25.1016 8.02083c1.0937-.82031 2.0781-1.80469 2.8984-3.00781-1.0938.49219-2.1875.82031-3.2812.92969 1.2031-.76563 2.0781-1.80469 2.5156-3.17188-1.1485.65625-2.3516 1.14844-3.6641 1.36719-.5469-.54688-1.2031-.98438-1.9141-1.3125-.7109-.32813-1.4765-.49219-2.2968-.49219-1.0391 0-1.9688.27344-2.8438.76563-.875.54687-1.5859 1.25781-2.0781 2.13281-.5469.875-.7656 1.85937-.7656 2.84375 0 .4375 0 .875.1093 1.3125-2.3515-.10938-4.53901-.65625-6.61714-1.75-2.07812-1.03906-3.77344-2.46094-5.19531-4.26563-.54687.92969-.82031 1.91407-.82031 2.89844 0 .98438.21875 1.91406.71093 2.73438.43751.875 1.09375 1.53129 1.85938 2.07809-.92969 0-1.80469-.2734-2.57031-.7656v.1094c0 1.3672.4375 2.5703 1.3125 3.6094.875 1.0937 1.96875 1.75 3.28125 2.0234-.54688.1094-1.03907.1641-1.53125.1641-.32813 0-.71094 0-1.03906-.0547.32812 1.1484.98437 2.0781 1.96874 2.8437.98438.7656 2.07813 1.0938 3.39063 1.0938-2.13281 1.6406-4.53906 2.4609-7.16406 2.4609-.546878 0-.984378 0-1.36719-.0547 2.625 1.75 5.57812 2.5703 8.80469 2.5703 3.33591 0 6.28901-.8203 8.91411-2.5703 2.3515-1.5312 4.2109-3.5547 5.5234-6.1797 1.2578-2.4062 1.914-4.9765 1.914-7.60153 0-.32813-.0546-.54688-.0546-.71094z" fill="#222"/></svg>

<svg width="28" height="28" viewBox="0 0 28 28" fill="none" xmlns="http://www.w3.org/2000/svg">
<path d="M25.1016 8.02083C26.1953 7.20052 27.1797 6.21614 28 5.01302C26.9062 5.50521 25.8125 5.83333 24.7188 5.94271C25.9219 5.17708 26.7969 4.13802 27.2344 2.77083C26.0859 3.42708 24.8828 3.91927 23.5703 4.13802C23.0234 3.59114 22.3672 3.15364 21.6562 2.82552C20.9453 2.49739 20.1797 2.33333 19.3594 2.33333C18.3203 2.33333 17.3906 2.60677 16.5156 3.09896C15.6406 3.64583 14.9297 4.35677 14.4375 5.23177C13.8906 6.10677 13.6719 7.09114 13.6719 8.07552C13.6719 8.51302 13.6719 8.95052 13.7812 9.38802C11.4297 9.27864 9.24219 8.73177 7.16406 7.63802C5.08594 6.59896 3.39062 5.17708 1.96875 3.37239C1.42188 4.30208 1.14844 5.28646 1.14844 6.27083C1.14844 7.25521 1.36719 8.18489 1.85937 9.00521C2.29688 9.88021 2.95312 10.5365 3.71875 11.0833C2.78906 11.0833 1.91406 10.8099 1.14844 10.3177V10.4271C1.14844 11.7943 1.58594 12.9974 2.46094 14.0365C3.33594 15.1302 4.42969 15.7865 5.74219 16.0599C5.19531 16.1693 4.70312 16.224 4.21094 16.224C3.88281 16.224 3.5 16.224 3.17188 16.1693C3.5 17.3177 4.15625 18.2474 5.14062 19.013C6.125 19.7786 7.21875 20.1068 8.53125 20.1068C6.39844 21.7474 3.99219 22.5677 1.36719 22.5677C0.820312 22.5677 0.382812 22.5677 0 22.513C2.625 24.263 5.57812 25.0833 8.80469 25.0833C12.1406 25.0833 15.0937 24.263 17.7188 22.513C20.0703 20.9818 21.9297 18.9583 23.2422 16.3333C24.5 13.9271 25.1562 11.3568 25.1562 8.73177C25.1562 8.40364 25.1016 8.18489 25.1016 8.02083Z" fill="#222222"/>
</svg>
